X:1668
T:"Molly In The Garden" (hornpipe) 1668
C:after Sg't J. O'Neill
N:Dal Segno al Fine   Note moved repeat in "B" part.
B:O'Neill's Music Of Ireland (The 1850) Lyon & Healy, Chicago, 1903 edition
Z:FROM O'NEILL'S TO NOTEWORTHY, FROM NOTEWORTHY TO ABC, MIDI AND .TXT BY VINCE
BRENNAN July 2003 (HTTP://WWW.SOSYOURMOM.COM)
I:abc2nwc
M:2/4
L:1/16
K:G
(dc)"^Segno"|BcAB GAFA|EDGE D2GA|B2GB c2Bc|dcBc A2dc|
BcAB GAFA|EDGE D2(GA)|cedc BA (3(GAB)|A2G2 G2"Fine^":|
(3(AGF)|:E2e2 e2 (3(GFE)|D2d2 d2 (3(FED)|C2c2 c2(AB)|cBAB cB (3(AGF)|
E2e2 e2 (3(GFE)|D2d2 d2(ef)|gfef gfec|dcde dcB"Dal Segno al Fine^"A:|
